symbols/web/data_saver_on/materialsymbolsrounded/data_saver_on_wght500grad200_48px.svg

<svg xmlns="http://www.w3.org/2000/svg" height="48" width="48"><path d="M24.05 31.65q-.75 0-1.3-.55t-.55-1.35v-4h-4q-.8 0-1.35-.55t-.55-1.35q0-.75.55-1.275.55-.525 1.35-.525h4v-4.1q0-.75.55-1.3t1.35-.55q.75 0 1.275.55.525.55.525 1.3v4.1h4.05q.75 0 1.3.525t.55 1.325q0 .75-.55 1.3t-1.3.55H25.9v4q0 .8-.525 1.35t-1.325.55ZM42.5 32.8 37.6 30q.6-1.55.9-3.025.3-1.475.3-2.975 0-5.75-3.8-9.95-3.8-4.2-9.4-4.7v-5.7q8 .55 13.45 6.35 5.45 5.8 5.45 13.8 0 2.25-.525 4.525Q43.45 30.6 42.5 32.8ZM24.05 44.45q-4.25 0-7.95-1.6T9.625 38.5q-2.775-2.75-4.4-6.5Q3.6 28.25 3.6 24.05q0-8.05 5.475-13.9T22.6 3.7v5.7q-5.65.5-9.475 4.725Q9.3 18.35 9.3 24.05q0 6.1 4.325 10.4 4.325 4.3 10.425 4.3 3.6 0 6.725-1.6 3.125-1.6 5.375-4.55l4.9 2.9q-2.85 4.2-7.325 6.575T24.05 44.45Z"/></svg>

<svg xmlns="http://www.w3.org/2000/svg" height="48" width="48"><path d="M24.05 31.65Q23.3 31.65 22.75 31.1Q22.2 30.55 22.2 29.75V25.75H18.2Q17.4 25.75 16.85 25.2Q16.3 24.65 16.3 23.85Q16.3 23.1 16.85 22.575Q17.4 22.05 18.2 22.05H22.2V17.95Q22.2 17.2 22.75 16.65Q23.3 16.1 24.1 16.1Q24.85 16.1 25.375 16.65Q25.9 17.2 25.9 17.95V22.05H29.95Q30.7 22.05 31.25 22.575Q31.8 23.1 31.8 23.9Q31.8 24.65 31.25 25.2Q30.7 25.75 29.95 25.75H25.9V29.75Q25.9 30.55 25.375 31.1Q24.85 31.65 24.05 31.65ZM42.5 32.8 37.6 30Q38.2 28.45 38.5 26.975Q38.8 25.5 38.8 24Q38.8 18.25 35 14.05Q31.2 9.85 25.6 9.35V3.65Q33.6 4.2 39.05 10Q44.5 15.8 44.5 23.8Q44.5 26.05 43.975 28.325Q43.45 30.6 42.5 32.8ZM24.05 44.45Q19.8 44.45 16.1 42.85Q12.4 41.25 9.625 38.5Q6.85 35.75 5.225 32Q3.6 28.25 3.6 24.05Q3.6 16 9.075 10.15Q14.55 4.3 22.6 3.7V9.4Q16.95 9.9 13.125 14.125Q9.3 18.35 9.3 24.05Q9.3 30.15 13.625 34.45Q17.95 38.75 24.05 38.75Q27.65 38.75 30.775 37.15Q33.9 35.55 36.15 32.6L41.05 35.5Q38.2 39.7 33.725 42.075Q29.25 44.45 24.05 44.45Z"/></svg>
